X:124
T:Miss Johnson's (r)
B:NFID.069b
124miss_j
N:This is recognizable as a relative of "Miss
Johnson" in O'Neill's (ONMI.1376)
S:JD
L:1/8
M:C
R:reel
Q:360
K:D
AG|:F2FE DFA,F|DFED CDEG|FGFE DCDF|EDEF GBAG|
F2FE DAA,F|DFED CDFG|AFGE FDED|CDEF GBAG:|
FGAc BA^GB|AFdF eFdF|FGAc BAGF|GBec dcBG|
FGAB AGFG|AFdF eFde|fdec dcBA|Bdce dABG|
FGAB AGFG|AF (3FFF eFdF|FGAc BAGF|GBec dcBG|
FGAB AGFG|AFdf eFdg|fdec dcBA|^GBec dBAG|]

%%%

